X:1
T:the Weavers
T:P\'adraig O'Keeffe's Slide No. 2
R:Jig
D:From a Chieftains Album
F:http://alfwarnock.info/alfs/abc/alfjigs.abc
M:6/8
L:1/8
%Q:3/8=120
K:D
g |\
"D"fed "G"B2d | "D"A2d F2B | "D"A2F "E(m)"E2D | "A7"EFE E2g |\
"D"fed "G"B2d | "D"A2d F2B | "A7"A2F E2F | "D"DED D2 :|
|: A |\
"D"d2e f2f | "G"gfe "D"f2f | "G"gfe "D"fed | "A7"efe e2A |\
"D"d2e f2f | "G"gfe "D"f2a | "A7"a2f efe | "D"ded d2 :|
